svgs/thin/arrow-down-to-dotted-line.svg

<svg xmlns="http://www.w3.org/2000/svg" viewBox="0 0 448 512"><!--! Font Awesome Pro 6.3.0 by @fontawesome - https://fontawesome.com License - https://fontawesome.com/license (Commercial License) Copyright 2023 Fonticons, Inc. --><path d="M128 432c-8.836 0-16 7.164-16 16s7.164 16 16 16s16-7.164 16-16S136.8 432 128 432zM224 432c-8.836 0-16 7.164-16 16s7.164 16 16 16s16-7.164 16-16S232.8 432 224 432zM32 432c-8.836 0-16 7.164-16 16s7.164 16 16 16s16-7.164 16-16S40.84 432 32 432zM320 432c-8.836 0-16 7.164-16 16s7.164 16 16 16s16-7.164 16-16S328.8 432 320 432zM416 432c-8.836 0-16 7.164-16 16s7.164 16 16 16s16-7.164 16-16S424.8 432 416 432zM218.3 365.7c3.125 3.125 8.188 3.125 11.31 0l152-152C383.2 212.1 384 210.1 384 207.1s-.7813-4.094-2.344-5.656c-3.125-3.125-8.188-3.125-11.31 0L232 340.7V55.1c0-4.406-3.578-8-8-8s-8 3.594-8 8v284.7L77.66 202.3c-3.125-3.125-8.188-3.125-11.31 0s-3.125 8.188 0 11.31L218.3 365.7z"/></svg>

<svg xmlns="http://www.w3.org/2000/svg" viewBox="0 0 448 512"><!-- Font Awesome Pro 6.0.0-alpha2 by @fontawesome - https://fontawesome.com License - https://fontawesome.com/license (Commercial License) --><path d="M128 432C119.164 432 112 439.164 112 448S119.164 464 128 464S144 456.836 144 448S136.836 432 128 432ZM224 432C215.164 432 208 439.164 208 448S215.164 464 224 464S240 456.836 240 448S232.836 432 224 432ZM32 432C23.164 432 16 439.164 16 448S23.164 464 32 464S48 456.836 48 448S40.836 432 32 432ZM320 432C311.164 432 304 439.164 304 448S311.164 464 320 464S336 456.836 336 448S328.836 432 320 432ZM416 432C407.164 432 400 439.164 400 448S407.164 464 416 464S432 456.836 432 448S424.836 432 416 432ZM218.344 365.655C221.469 368.78 226.531 368.78 229.656 365.655L381.656 213.655C383.219 212.093 384 210.062 384 207.999S383.219 203.905 381.656 202.343C378.531 199.218 373.469 199.218 370.344 202.343L232 340.687V55.999C232 51.593 228.422 47.999 224 47.999S216 51.593 216 55.999V340.687L77.656 202.343C74.531 199.218 69.469 199.218 66.344 202.343S63.219 210.53 66.344 213.655L218.344 365.655Z"/></svg>
